X:1
T:Title
%%score { ( 1 3 ) | 2 }
L:1/8
Q:1/4=100
M:4/4
K:C
V:1 treble nm="Grand Piano"
V:3 treble 
V:2 bass 
V:1
 [CE][DF][_E^F][=EG] [=FA]2 [EG][Gc] | c2 B2 B4 | DEFG B A2 G | GDEF E4 | %4
w: William~M.~Runyan * * * * * *||||
 [EG][EG][_E^F][=EG] [=FA]2 GG | c2 [Ad]2 [^Ge]4 | dcBA Gcc[^Fd] | c2 B-[FB] [Ec]4 | %8
w: ||||
 [CE][DF][_E^F][=EG] [=FA][EG] [CE]2 | [Ec]2 [Ec]2 [FB]4 | DEFG BA G2 | GA[DG][DF] [CE]4 | %12
w: ||||
 [EG][EG][_E^F][=EG] [=FA]2 [EG][EG] | [Ec][Ec][FB][Gc] d2 A2 | c>c BA GE G2 | %15
w: |||
 z2 d2[K:bass][K:treble] z4 |] %16
w: |
V:2
 [C,G,][C,G,][C,C][C,C] [C,C]2 [C,C][E,C] | [G,DF]2 [G,DF]2 [G,DF]4 | %2
 [G,B,][G,_B,^C][G,=B,D][G,E] [G,DF] [G,DF]2 [G,B,F] | [G,B,D][F,G,B,][E,G,B,][D,G,B,] [C,G,C]4 | %4
 [C,C][C,C][C,C][C,C] [C,C]2 [E,CE][G,CE] | [A,CE]2 [F,A,]2 [E,B,]4 | %6
 [F,A,F][F,A,F][^F,B,_E][F,CE][K:treble] [G,C=E][G,CE][A,^F][K:bass][D,A,] | %7
 [G,E]2 [G,,G,]2 [C,G,]4 | [C,G,][C,G,][C,C][C,C] [C,C][C,C] [C,G,]2 | [C,G,]2 [C,G,]2 [D,G,]4 | %10
 [G,B,][K:treble][G,_B,^C][G,=B,D][G,E] [G,DF][G,=CF] [G,B,F]2 | %11
 [G,B,F][G,B,F][K:bass][B,,G,][B,,G,] [C,G,]4 | [C,C][C,C][C,C][C,C] [C,C]2 [C,C][C,C] | %13
 [C,G,][C,G,][D,G,][E,C] [F,A,F]2 [F,CF]2 | %14
 [^F,A,_E]>[F,A,E] [F,B,E][F,CE][K:treble] [G,C=E][G,C] [G,CE]2 | %15
 [A,^F]2 .[G,B,=F]2[K:bass] [C,C]4 |] %16
V:3
 x8 | x8 | x8 | x8 | x8 | x8 | x8 | z2 .D2 z4 | x8 | x8 | x8 | x8 | x8 | x8 | x8 | %15
 c2 z[K:bass] G,,[K:treble] [Ec]4 |] %16

